flaticon/stationery/stamp.svg

<svg xmlns="http://www.w3.org/2000/svg" width="32" height="32" viewBox="0 0 24 24">
    <path d="M 17.195312 16.316406 L 14.652344 16.316406 C 14.679688 12.128906 15.140625 8.550781 16.054688 5.390625 C 16.164062 5.011719 16.21875 4.617188 16.21875 4.21875 C 16.21875 1.730469 14.054688 -0.25 11.515625 0.0273438 C 9.613281 0.238281 8.058594 1.769531 7.816406 3.664062 C 7.75 4.164062 7.773438 4.664062 7.882812 5.148438 C 8.863281 9.492188 9.332031 13.050781 9.351562 16.316406 L 6.804688 16.316406 C 4.800781 16.316406 3.171875 17.945312 3.171875 19.945312 L 3.171875 23.488281 C 3.171875 23.773438 3.402344 24 3.683594 24 L 20.316406 24 C 20.597656 24 20.828125 23.773438 20.828125 23.488281 L 20.828125 19.945312 C 20.828125 17.945312 19.199219 16.316406 17.195312 16.316406 Z M 8.828125 3.792969 C 9.011719 2.359375 10.191406 1.203125 11.628906 1.042969 C 13.558594 0.816406 15.199219 2.332031 15.199219 4.21875 C 15.199219 4.519531 15.15625 4.820312 15.074219 5.105469 C 14.132812 8.359375 13.65625 12.03125 13.628906 16.316406 L 10.371094 16.316406 C 10.351562 12.972656 9.875 9.34375 8.878906 4.921875 C 8.796875 4.554688 8.78125 4.175781 8.828125 3.792969 Z M 19.804688 22.980469 L 4.195312 22.980469 L 4.195312 19.945312 C 4.195312 18.507812 5.363281 17.335938 6.804688 17.335938 L 17.195312 17.335938 C 18.636719 17.335938 19.804688 18.507812 19.804688 19.945312 Z M 19.804688 22.980469"/>
</svg>

<svg xmlns="http://www.w3.org/2000/svg" width="32" height="32" viewBox="0 0 24 24">
    <path d="M17.195 16.316h-2.543c.028-4.187.489-7.765 1.403-10.925a4.225 4.225 0 0 0-4.54-5.364C9.614.238 8.06 1.77 7.817 3.664c-.066.5-.043 1 .067 1.484.98 4.344 1.449 7.903 1.469 11.168H6.805a3.635 3.635 0 0 0-3.633 3.63v3.542c0 .285.23.512.512.512h16.632a.511.511 0 0 0 .512-.512v-3.543c0-2-1.629-3.629-3.633-3.629zM8.828 3.793a3.209 3.209 0 0 1 2.8-2.75 3.196 3.196 0 0 1 3.446 4.062c-.941 3.254-1.418 6.926-1.445 11.211H10.37c-.02-3.343-.496-6.972-1.492-11.394a3.312 3.312 0 0 1-.05-1.129zM19.805 22.98H4.195v-3.035a2.612 2.612 0 0 1 2.61-2.61h10.39a2.612 2.612 0 0 1 2.61 2.61zm0 0"/>
</svg>
